src/assets/duotone/Logout.svg

<svg width="24" height="24" viewBox="0 0 24 24"  xmlns="http://www.w3.org/2000/svg">
<path opacity="0.4" d="M9 7.2V16.79C9 20 11 22 14.2 22H16.79C19.99 22 21.99 20 21.99 16.8V7.2C22 4 20 2 16.8 2H14.2C11 2 9 4 9 7.2Z" />
<path d="M5.56994 8.12002L2.21994 11.47C1.92994 11.76 1.92994 12.24 2.21994 12.53L5.56994 15.88C5.85994 16.17 6.33994 16.17 6.62994 15.88C6.91994 15.59 6.91994 15.11 6.62994 14.82L4.55994 12.75H15.2499C15.6599 12.75 15.9999 12.41 15.9999 12C15.9999 11.59 15.6599 11.25 15.2499 11.25H4.55994L6.62994 9.18002C6.77994 9.03002 6.84994 8.84002 6.84994 8.65002C6.84994 8.46002 6.77994 8.26002 6.62994 8.12002C6.33994 7.82002 5.86994 7.82002 5.56994 8.12002Z" />
</svg>

<?xml version="1.0" encoding="UTF-8"?>
<svg width="24" height="24" viewBox="0 0 24 24" xmlns="http://www.w3.org/2000/svg">
 <path d="M9 7.2V16.79C9 20 11 22 14.2 22H16.79C19.99 22 21.99 20 21.99 16.8V7.2C22 4 20 2 16.8 2H14.2C11 2 9 4 9 7.2Z" opacity=".4"/>
 <path d="m5.5699 8.12-3.35 3.35c-0.29 0.29-0.29 0.77 0 1.06l3.35 3.35c0.29 0.29 0.77 0.29 1.06 0s0.29-0.77 0-1.06l-2.07-2.07h10.69c0.41 0 0.75-0.34 0.75-0.75s-0.34-0.75-0.75-0.75h-10.69l2.07-2.07c0.15-0.15 0.22-0.34 0.22-0.53s-0.07-0.39-0.22-0.53c-0.29-0.3-0.76-0.3-1.06 0z"/>
</svg>
